svg/fluentui-system-icons/ic_fluent_alert_48_filled.svg

<svg width="48" height="48" viewBox="0 0 48 48" fill="none" xmlns="http://www.w3.org/2000/svg">
<path d="M23.9999 4C15.7157 4 8.99992 10.7157 8.99992 19V27.4865L6.19571 33.8417C5.53945 35.329 6.62858 37 8.25422 37H39.7457C41.3713 37 42.4605 35.329 41.8042 33.8417L38.9999 27.4865V19C38.9999 10.7157 32.2842 4 23.9999 4ZM24 44C21.0271 44 18.5591 41.8377 18.083 39H29.9171C29.441 41.8377 26.973 44 24 44Z" fill="#212121"/>
</svg>

<svg xmlns="http://www.w3.org/2000/svg" width="48" height="48"><path d="M24 4C15.716 4 9 10.716 9 19v8.486l-2.804 6.356A2.25 2.25 0 0 0 8.254 37h31.492a2.25 2.25 0 0 0 2.058-3.158L39 27.487V19c0-8.284-6.716-15-15-15Zm0 40a6.002 6.002 0 0 1-5.917-5h11.834A6.002 6.002 0 0 1 24 44Z"/></svg>
